X:174
T:Miss Gayton's Hornpipe. Le4.174
Q:1/2=90
L:1/8
B:L.Leadley MS#4 c1850
Z:vmp.Mike Hicken 2016 www.village-music-project.org.uk
N:Tune 34 in "The Fiddler of Helperby"
M:C
K:G
dc|Bdgf g2 dc|Bdgf g2 dc|Bdgf efga|fdag fedc|
Bdgf g2 dc|Bdgf g2d2|efga fgab|gbd'b g2:|
|:ga|babg a2f2|gfge d2B2|cdec BcdB|ABcd efga|
babg a2f2|gfge d2B2|efga fgab|gbd'b g2 :|

